actions/32/folder-new.svg

<svg xmlns="http://www.w3.org/2000/svg" viewBox="0 0 32 32">
  <defs
     id="defs3051">
<style type="text/css" id="current-color-scheme">.ColorScheme-Text {color:#fcfcfc;}</style>
  </defs>
  <path
     style="fill:currentColor;fill-opacity:1;stroke:none" 
     d="m 4,8 c 0,4 0,12 0,16 0,4 4,4 4,4 h 9 V 27 H 8 c 0,0 -3,0 -3,-3 0,-3 0,-6 0,-8 0,-2 2,-2 2,-2 h 3 l 3,-3 h 11 c 0,0 3,0 3,3 0,3 0,3 0,3 h 1 c 0,0 0,-2 0,-6 C 28,7 24,7 24,7 H 18 L 15,4 H 8 C 8,4 4,4 4,8 Z m 18,9 v 5 h -5 v 1 h 5 v 5 h 1 v -5 h 5 v -1 h -5 v -5 z"
     id="path99" 
     class="ColorScheme-Text"
     />
</svg>

<svg xmlns="http://www.w3.org/2000/svg" viewBox="0 0 32 32">
  <defs
     id="defs3051">
    <style
       type="text/css"
       id="current-color-scheme">
      .ColorScheme-Text {
        color:#d8d8d8;
      }
      </style>
  </defs>
  <path
     style="fill:currentColor;fill-opacity:1;stroke:none" 
     d="M 4 4 L 4 28 L 17 28 L 17 27 L 5 27 L 5 14 L 10 14 L 13 11 L 27 11 L 27 17 L 28 17 L 28 7 L 18 7 L 15 4 L 4 4 z M 22 17 L 22 22 L 17 22 L 17 23 L 22 23 L 22 28 L 23 28 L 23 23 L 28 23 L 28 22 L 23 22 L 23 17 L 22 17 z "
     id="path99" 
     class="ColorScheme-Text"
     />
</svg>
